tools/download-figma-icons/icons/action/sun.svg

<svg width="24" height="24" viewBox="0 0 24 24" fill="none" xmlns="http://www.w3.org/2000/svg">
<path fill-rule="evenodd" clip-rule="evenodd" d="M11.9951 5.29795C11.4421 5.29795 10.9951 4.84995 10.9951 4.29796V0.99999C10.9951 0.447995 11.4421 0 11.9951 0C12.5481 0 12.9951 0.447995 12.9951 0.99999V4.29796C12.9951 4.84995 12.5481 5.29795 11.9951 5.29795ZM11.9951 6.46103C8.93811 6.46103 6.46113 8.93901 6.46113 11.995C6.46113 15.0519 8.93811 17.5299 11.9951 17.5299C15.052 17.5299 17.529 15.0519 17.529 11.995C17.529 8.93901 15.052 6.46103 11.9951 6.46103ZM11.9951 8.46101C13.9441 8.46101 15.529 10.046 15.529 11.995C15.529 13.944 13.9441 15.5299 11.9951 15.5299C10.0471 15.5299 8.46111 13.944 8.46111 11.995C8.46111 10.046 10.0471 8.46101 11.9951 8.46101ZM5.84574 7.25933C6.04074 7.45432 6.29674 7.55232 6.55273 7.55232C6.80873 7.55232 7.06473 7.45432 7.25973 7.25933C7.65072 6.86833 7.65072 6.23634 7.25973 5.84534L4.92775 3.51336C4.53675 3.12237 3.90476 3.12237 3.51376 3.51336C3.12277 3.90436 3.12277 4.53635 3.51376 4.92735L5.84574 7.25933ZM4.29796 12.9952H0.99999C0.446995 12.9952 0 12.5472 0 11.9952C0 11.4432 0.446995 10.9952 0.99999 10.9952H4.29796C4.85095 10.9952 5.29795 11.4432 5.29795 11.9952C5.29795 12.5472 4.85095 12.9952 4.29796 12.9952ZM3.51376 20.477C3.70876 20.672 3.96476 20.77 4.22076 20.77C4.47675 20.77 4.73275 20.672 4.92775 20.477L7.25973 18.145C7.65072 17.754 7.65072 17.122 7.25973 16.731C6.86873 16.34 6.23674 16.34 5.84574 16.731L3.51376 19.063C3.12277 19.454 3.12277 20.086 3.51376 20.477ZM11.9951 23.9907C11.4421 23.9907 10.9951 23.5427 10.9951 22.9907V19.6927C10.9951 19.1397 11.4421 18.6927 11.9951 18.6927C12.5481 18.6927 12.9951 19.1397 12.9951 19.6927V22.9907C12.9951 23.5427 12.5481 23.9907 11.9951 23.9907ZM19.0634 20.477C19.2584 20.672 19.5144 20.77 19.7704 20.77C20.0264 20.77 20.2824 20.672 20.4774 20.477C20.8684 20.086 20.8684 19.454 20.4774 19.063L18.1454 16.731C17.7544 16.34 17.1224 16.34 16.7314 16.731C16.3404 17.122 16.3404 17.754 16.7314 18.145L19.0634 20.477ZM22.9911 12.9952H19.6921C19.1391 12.9952 18.6921 12.5472 18.6921 11.9952C18.6921 11.4432 19.1391 10.9952 19.6921 10.9952H22.9911C23.5441 10.9952 23.9911 11.4432 23.9911 11.9952C23.9911 12.5472 23.5441 12.9952 22.9911 12.9952ZM16.7314 7.25933C16.9264 7.45432 17.1824 7.55232 17.4384 7.55232C17.6944 7.55232 17.9504 7.45432 18.1454 7.25933L20.4774 4.92735C20.8684 4.53635 20.8684 3.90436 20.4774 3.51336C20.0864 3.12237 19.4544 3.12237 19.0634 3.51336L16.7314 5.84534C16.3404 6.23634 16.3404 6.86833 16.7314 7.25933Z" fill="black"/>
</svg>

<svg width="24" height="24" viewBox="0 0 24 24" fill="none" xmlns="http://www.w3.org/2000/svg"><path fill-rule="evenodd" clip-rule="evenodd" d="M11.995 5.298a1 1 0 0 1-1-1V1a1 1 0 1 1 2 0v3.298a1 1 0 0 1-1 1Zm0 1.163a5.534 5.534 0 1 0 0 11.07 5.534 5.534 0 0 0 0-11.07Zm0 2a3.537 3.537 0 0 1 3.534 3.534 3.538 3.538 0 0 1-3.534 3.535 3.539 3.539 0 0 1-3.534-3.535 3.538 3.538 0 0 1 3.534-3.534Zm-6.15-1.202a.997.997 0 0 0 1.415 0 .999.999 0 0 0 0-1.414L4.928 3.513a.999.999 0 1 0-1.414 1.414L5.846 7.26Zm-1.547 5.736H1a1 1 0 1 1 0-2h3.298a1 1 0 1 1 0 2Zm-.784 7.482a.997.997 0 0 0 1.414 0l2.332-2.332a.999.999 0 1 0-1.414-1.414l-2.332 2.332a.999.999 0 0 0 0 1.414Zm8.481 3.514a1 1 0 0 1-1-1v-3.298a1 1 0 1 1 2 0v3.298a1 1 0 0 1-1 1Zm7.068-3.514a.997.997 0 0 0 1.414 0 .999.999 0 0 0 0-1.414l-2.332-2.332a.999.999 0 1 0-1.414 1.414l2.332 2.332Zm3.928-7.482h-3.299a1 1 0 1 1 0-2h3.3a1 1 0 1 1 0 2Zm-6.26-5.736a.997.997 0 0 0 1.414 0l2.332-2.332a.999.999 0 1 0-1.414-1.414l-2.332 2.332a.999.999 0 0 0 0 1.414Z" fill="currentColor"/></svg>
